dark-themes/pictures/formula-e.svg

<svg viewBox="0 0 33 22" xmlns="http://www.w3.org/2000/svg" xmlns:xlink="http://www.w3.org/1999/xlink"><symbol id="a" overflow="visible"><path d="m7.0625-2.328125c.015625-.046875.046875-.109375.046875-.140625 0 0 0-.109375-.125-.109375-.09375 0-.109375.0625-.125.125-.65625 1.46875-1.015625 2.140625-2.71875 2.140625h-1.453125c-.140625 0-.171875 0-.21875 0-.109375-.015625-.140625-.03125-.140625-.109375 0-.03125 0-.046875.046875-.21875l.6875-2.734375h.984375c.84375 0 .84375.21875.84375.46875 0 .0625 0 .1875-.0625.484375-.015625.046875-.03125.078125-.03125.109375 0 .046875.03125.109375.125.109375.078125 0 .109375-.046875.15625-.203125l.5625-2.328125c0-.0625-.046875-.109375-.125-.109375s-.109375.0625-.125.171875c-.21875.765625-.390625 1-1.3125 1h-.9375l.59375-2.40625c.09375-.359375.109375-.390625.546875-.390625h1.40625c1.203125 0 1.515625.28125 1.515625 1.109375 0 .234375 0 .25-.046875.53125 0 .046875-.015625.125-.015625.171875s.03125.125.125.125c.109375 0 .125-.0625.140625-.25l.203125-1.734375c.03125-.265625-.015625-.265625-.265625-.265625h-5.046875c-.1875 0-.296875 0-.296875.203125 0 .109375.09375.109375.28125.109375.375 0 .65625 0 .65625.171875 0 .046875 0 .0625-.0625.25l-1.3125 5.265625c-.09375.390625-.109375.46875-.90625.46875-.171875 0-.28125 0-.28125.1875 0 .125.09375.125.28125.125h5.171875c.234375 0 .25-.015625.3125-.171875zm0 0"/></symbol><symbol id="b" overflow="visible"><path d="m2.859375-6.8125s0-.109375-.125-.109375c-.234375 0-.953125.078125-1.21875.109375-.078125 0-.1875.015625-.1875.1875 0 .125.09375.125.234375.125.484375 0 .5.0625.5.171875l-.03125.203125-1.4375 5.734375c-.046875.140625-.046875.15625-.046875.21875 0 .234375.203125.28125.296875.28125.15625 0 .3125-.125.359375-.265625l.1875-.75.21875-.890625c.0625-.234375.125-.453125.171875-.671875.015625-.0625.109375-.390625.109375-.453125.03125-.09375.34375-.640625.6875-.921875.21875-.15625.515625-.34375.953125-.34375.421875 0 .53125.34375.53125.703125 0 .53125-.375 1.625-.609375 2.234375-.078125.21875-.140625.34375-.140625.546875 0 .46875.359375.8125.828125.8125.9375 0 1.296875-1.453125 1.296875-1.53125 0-.109375-.078125-.109375-.109375-.109375-.109375 0-.109375.03125-.15625.1875-.140625.53125-.46875 1.234375-1.015625 1.234375-.171875 0-.234375-.09375-.234375-.328125 0-.25.078125-.484375.171875-.703125.15625-.4375.609375-1.625.609375-2.203125 0-.640625-.390625-1.0625-1.140625-1.0625-.625 0-1.109375.3125-1.484375.765625zm0 0"/></symbol><symbol id="c" overflow="visible"><path d="m3.953125-3.78125c-.171875 0-.296875 0-.4375.125-.171875.15625-.1875.328125-.1875.390625 0 .25.1875.359375.375.359375.28125 0 .546875-.25.546875-.640625 0-.484375-.46875-.859375-1.171875-.859375-1.34375 0-2.671875 1.421875-2.671875 2.828125 0 .90625.578125 1.6875 1.625 1.6875 1.421875 0 2.25-1.0625 2.25-1.171875 0-.0625-.046875-.140625-.109375-.140625s-.078125.03125-.140625.109375c-.78125.984375-1.875.984375-1.984375.984375-.625 0-.90625-.484375-.90625-1.09375 0-.40625.203125-1.375.546875-1.984375.3125-.578125.859375-1 1.40625-1 .328125 0 .71875.125.859375.40625zm0 0"/></symbol><symbol id="d" overflow="visible"><path d="m3.5625-2.90625c.40625 1.046875.890625 2.5625 1.046875 2.796875.15625.21875.25.21875.53125.21875h.21875c.09375-.015625.109375-.0625.109375-.09375s-.03125-.0625-.0625-.09375c-.09375-.109375-.15625-.265625-.21875-.453125l-2.03125-5.671875c-.21875-.578125-.75-.71875-1.21875-.71875-.046875 0-.1875 0-.1875.109375 0 .078125.078125.109375.09375.109375.328125.046875.40625.109375.65625.796875l.953125 2.703125-2.75 2.734375c-.109375.125-.171875.171875-.171875.3125 0 .171875.140625.28125.296875.28125s.25-.109375.328125-.203125zm0 0"/></symbol><symbol id="e" overflow="visible"><path d="m6.84375-3.265625c.15625 0 .34375 0 .34375-.1875 0-.203125-.1875-.203125-.328125-.203125h-5.96875c-.140625 0-.328125 0-.328125.203125 0 .1875.1875.1875.328125.1875zm.015625 1.9375c.140625 0 .328125 0 .328125-.203125 0-.1875-.1875-.1875-.34375-.1875h-5.953125c-.140625 0-.328125 0-.328125.1875 0 .203125.1875.203125.328125.203125zm0 0"/></symbol><use x="-.198828" xlink:href="#a" y="14.41797"/><use x="10.493372" xlink:href="#e" y="14.41797"/><use x="22.201972" xlink:href="#b" y="7.67695"/><use x="27.943971" xlink:href="#c" y="7.67695"/><path d="m222.03125 100.703125h100.507812" fill="none" stroke="#000" stroke-miterlimit="10" stroke-width="4.05" transform="matrix(.1 0 0 -.1 0 22)"/><use x="24.3262" xlink:href="#d" y="21.248828"/></svg>

<?xml version="1.0" encoding="UTF-8"?>
<svg xmlns="http://www.w3.org/2000/svg" xmlns:xlink="http://www.w3.org/1999/xlink" viewBox="0 0 33 22" version="1.1">
<defs>
<g>
<symbol overflow="visible" id="glyph0-0">
<path style="stroke:none;" d="M 7.0625 -2.328125 C 7.078125 -2.375 7.109375 -2.4375 7.109375 -2.46875 C 7.109375 -2.46875 7.109375 -2.578125 6.984375 -2.578125 C 6.890625 -2.578125 6.875 -2.515625 6.859375 -2.453125 C 6.203125 -0.984375 5.84375 -0.3125 4.140625 -0.3125 L 2.6875 -0.3125 C 2.546875 -0.3125 2.515625 -0.3125 2.46875 -0.3125 C 2.359375 -0.328125 2.328125 -0.34375 2.328125 -0.421875 C 2.328125 -0.453125 2.328125 -0.46875 2.375 -0.640625 L 3.0625 -3.375 L 4.046875 -3.375 C 4.890625 -3.375 4.890625 -3.15625 4.890625 -2.90625 C 4.890625 -2.84375 4.890625 -2.71875 4.828125 -2.421875 C 4.8125 -2.375 4.796875 -2.34375 4.796875 -2.3125 C 4.796875 -2.265625 4.828125 -2.203125 4.921875 -2.203125 C 5 -2.203125 5.03125 -2.25 5.078125 -2.40625 L 5.640625 -4.734375 C 5.640625 -4.796875 5.59375 -4.84375 5.515625 -4.84375 C 5.4375 -4.84375 5.40625 -4.78125 5.390625 -4.671875 C 5.171875 -3.90625 5 -3.671875 4.078125 -3.671875 L 3.140625 -3.671875 L 3.734375 -6.078125 C 3.828125 -6.4375 3.84375 -6.46875 4.28125 -6.46875 L 5.6875 -6.46875 C 6.890625 -6.46875 7.203125 -6.1875 7.203125 -5.359375 C 7.203125 -5.125 7.203125 -5.109375 7.15625 -4.828125 C 7.15625 -4.78125 7.140625 -4.703125 7.140625 -4.65625 C 7.140625 -4.609375 7.171875 -4.53125 7.265625 -4.53125 C 7.375 -4.53125 7.390625 -4.59375 7.40625 -4.78125 L 7.609375 -6.515625 C 7.640625 -6.78125 7.59375 -6.78125 7.34375 -6.78125 L 2.296875 -6.78125 C 2.109375 -6.78125 2 -6.78125 2 -6.578125 C 2 -6.46875 2.09375 -6.46875 2.28125 -6.46875 C 2.65625 -6.46875 2.9375 -6.46875 2.9375 -6.296875 C 2.9375 -6.25 2.9375 -6.234375 2.875 -6.046875 L 1.5625 -0.78125 C 1.46875 -0.390625 1.453125 -0.3125 0.65625 -0.3125 C 0.484375 -0.3125 0.375 -0.3125 0.375 -0.125 C 0.375 0 0.46875 0 0.65625 0 L 5.828125 0 C 6.0625 0 6.078125 -0.015625 6.140625 -0.171875 Z M 7.0625 -2.328125 "/>
</symbol>
<symbol overflow="visible" id="glyph0-1">
<path style="stroke:none;" d="M 2.859375 -6.8125 C 2.859375 -6.8125 2.859375 -6.921875 2.734375 -6.921875 C 2.5 -6.921875 1.78125 -6.84375 1.515625 -6.8125 C 1.4375 -6.8125 1.328125 -6.796875 1.328125 -6.625 C 1.328125 -6.5 1.421875 -6.5 1.5625 -6.5 C 2.046875 -6.5 2.0625 -6.4375 2.0625 -6.328125 L 2.03125 -6.125 L 0.59375 -0.390625 C 0.546875 -0.25 0.546875 -0.234375 0.546875 -0.171875 C 0.546875 0.0625 0.75 0.109375 0.84375 0.109375 C 1 0.109375 1.15625 -0.015625 1.203125 -0.15625 L 1.390625 -0.90625 L 1.609375 -1.796875 C 1.671875 -2.03125 1.734375 -2.25 1.78125 -2.46875 C 1.796875 -2.53125 1.890625 -2.859375 1.890625 -2.921875 C 1.921875 -3.015625 2.234375 -3.5625 2.578125 -3.84375 C 2.796875 -4 3.09375 -4.1875 3.53125 -4.1875 C 3.953125 -4.1875 4.0625 -3.84375 4.0625 -3.484375 C 4.0625 -2.953125 3.6875 -1.859375 3.453125 -1.25 C 3.375 -1.03125 3.3125 -0.90625 3.3125 -0.703125 C 3.3125 -0.234375 3.671875 0.109375 4.140625 0.109375 C 5.078125 0.109375 5.4375 -1.34375 5.4375 -1.421875 C 5.4375 -1.53125 5.359375 -1.53125 5.328125 -1.53125 C 5.21875 -1.53125 5.21875 -1.5 5.171875 -1.34375 C 5.03125 -0.8125 4.703125 -0.109375 4.15625 -0.109375 C 3.984375 -0.109375 3.921875 -0.203125 3.921875 -0.4375 C 3.921875 -0.6875 4 -0.921875 4.09375 -1.140625 C 4.25 -1.578125 4.703125 -2.765625 4.703125 -3.34375 C 4.703125 -3.984375 4.3125 -4.40625 3.5625 -4.40625 C 2.9375 -4.40625 2.453125 -4.09375 2.078125 -3.640625 Z M 2.859375 -6.8125 "/>
</symbol>
<symbol overflow="visible" id="glyph0-2">
<path style="stroke:none;" d="M 3.953125 -3.78125 C 3.78125 -3.78125 3.65625 -3.78125 3.515625 -3.65625 C 3.34375 -3.5 3.328125 -3.328125 3.328125 -3.265625 C 3.328125 -3.015625 3.515625 -2.90625 3.703125 -2.90625 C 3.984375 -2.90625 4.25 -3.15625 4.25 -3.546875 C 4.25 -4.03125 3.78125 -4.40625 3.078125 -4.40625 C 1.734375 -4.40625 0.40625 -2.984375 0.40625 -1.578125 C 0.40625 -0.671875 0.984375 0.109375 2.03125 0.109375 C 3.453125 0.109375 4.28125 -0.953125 4.28125 -1.0625 C 4.28125 -1.125 4.234375 -1.203125 4.171875 -1.203125 C 4.109375 -1.203125 4.09375 -1.171875 4.03125 -1.09375 C 3.25 -0.109375 2.15625 -0.109375 2.046875 -0.109375 C 1.421875 -0.109375 1.140625 -0.59375 1.140625 -1.203125 C 1.140625 -1.609375 1.34375 -2.578125 1.6875 -3.1875 C 2 -3.765625 2.546875 -4.1875 3.09375 -4.1875 C 3.421875 -4.1875 3.8125 -4.0625 3.953125 -3.78125 Z M 3.953125 -3.78125 "/>
</symbol>
<symbol overflow="visible" id="glyph0-3">
<path style="stroke:none;" d="M 3.5625 -2.90625 C 3.96875 -1.859375 4.453125 -0.34375 4.609375 -0.109375 C 4.765625 0.109375 4.859375 0.109375 5.140625 0.109375 L 5.359375 0.109375 C 5.453125 0.09375 5.46875 0.046875 5.46875 0.015625 C 5.46875 -0.015625 5.4375 -0.046875 5.40625 -0.078125 C 5.3125 -0.1875 5.25 -0.34375 5.1875 -0.53125 L 3.15625 -6.203125 C 2.9375 -6.78125 2.40625 -6.921875 1.9375 -6.921875 C 1.890625 -6.921875 1.75 -6.921875 1.75 -6.8125 C 1.75 -6.734375 1.828125 -6.703125 1.84375 -6.703125 C 2.171875 -6.65625 2.25 -6.59375 2.5 -5.90625 L 3.453125 -3.203125 L 0.703125 -0.46875 C 0.59375 -0.34375 0.53125 -0.296875 0.53125 -0.15625 C 0.53125 0.015625 0.671875 0.125 0.828125 0.125 C 0.984375 0.125 1.078125 0.015625 1.15625 -0.078125 Z M 3.5625 -2.90625 "/>
</symbol>
<symbol overflow="visible" id="glyph1-0">
<path style="stroke:none;" d="M 6.84375 -3.265625 C 7 -3.265625 7.1875 -3.265625 7.1875 -3.453125 C 7.1875 -3.65625 7 -3.65625 6.859375 -3.65625 L 0.890625 -3.65625 C 0.75 -3.65625 0.5625 -3.65625 0.5625 -3.453125 C 0.5625 -3.265625 0.75 -3.265625 0.890625 -3.265625 Z M 6.859375 -1.328125 C 7 -1.328125 7.1875 -1.328125 7.1875 -1.53125 C 7.1875 -1.71875 7 -1.71875 6.84375 -1.71875 L 0.890625 -1.71875 C 0.75 -1.71875 0.5625 -1.71875 0.5625 -1.53125 C 0.5625 -1.328125 0.75 -1.328125 0.890625 -1.328125 Z M 6.859375 -1.328125 "/>
</symbol>
</g>
</defs>
<g id="surface1">
<g style="fill:rgb(0%,0%,0%);fill-opacity:1;">
  <use xlink:href="#glyph0-0" x="-0.198828" y="14.41797"/>
</g>
<g style="fill:rgb(0%,0%,0%);fill-opacity:1;">
  <use xlink:href="#glyph1-0" x="10.493372" y="14.41797"/>
</g>
<g style="fill:rgb(0%,0%,0%);fill-opacity:1;">
  <use xlink:href="#glyph0-1" x="22.201972" y="7.67695"/>
</g>
<g style="fill:rgb(0%,0%,0%);fill-opacity:1;">
  <use xlink:href="#glyph0-2" x="27.943971" y="7.67695"/>
</g>
<path style="fill:none;stroke-width:4.05;stroke-linecap:butt;stroke-linejoin:miter;stroke:rgb(0%,0%,0%);stroke-opacity:1;stroke-miterlimit:10;" d="M 222.03125 100.703125 L 322.539062 100.703125 " transform="matrix(0.1,0,0,-0.1,0,22)"/>
<g style="fill:rgb(0%,0%,0%);fill-opacity:1;">
  <use xlink:href="#glyph0-3" x="24.3262" y="21.248828"/>
</g>
</g>
</svg>
